icons/circle/48/cmyktool.svg

<svg viewBox="0 0 48 48" xmlns="http://www.w3.org/2000/svg">
 <defs>
  <linearGradient id="linearGradient3764" x1="1" x2="47" gradientTransform="matrix(0 -1 1 0 -1.5e-6 48)" gradientUnits="userSpaceOnUse">
   <stop style="stop-color:#e4e4e4" offset="0"/>
   <stop style="stop-color:#eee" offset="1"/>
  </linearGradient>
 </defs>
 <path d="m36.31 5c5.859 4.062 9.688 10.831 9.688 18.5 0 12.426-10.07 22.5-22.5 22.5-7.669 0-14.438-3.828-18.5-9.688 1.037 1.822 2.306 3.499 3.781 4.969 4.085 3.712 9.514 5.969 15.469 5.969 12.703 0 23-10.298 23-23 0-5.954-2.256-11.384-5.969-15.469-1.469-1.475-3.147-2.744-4.969-3.781zm4.969 3.781c3.854 4.113 6.219 9.637 6.219 15.719 0 12.703-10.297 23-23 23-6.081 0-11.606-2.364-15.719-6.219 4.16 4.144 9.883 6.719 16.219 6.719 12.703 0 23-10.298 23-23 0-6.335-2.575-12.06-6.719-16.219z" style="opacity:.05"/>
 <path d="m41.28 8.781c3.712 4.085 5.969 9.514 5.969 15.469 0 12.703-10.297 23-23 23-5.954 0-11.384-2.256-15.469-5.969 4.113 3.854 9.637 6.219 15.719 6.219 12.703 0 23-10.298 23-23 0-6.081-2.364-11.606-6.219-15.719z" style="opacity:.1"/>
 <path d="m31.25 2.375c8.615 3.154 14.75 11.417 14.75 21.13 0 12.426-10.07 22.5-22.5 22.5-9.708 0-17.971-6.135-21.12-14.75a23 23 0 0 0 44.875-7 23 23 0 0 0-16-21.875z" style="opacity:.2"/>
 <path d="m24 1c12.703 0 23 10.297 23 23s-10.297 23-23 23-23-10.297-23-23 10.297-23 23-23z" style="fill:url(#linearGradient3764)"/>
 <path d="m40.03 7.531c3.712 4.084 5.969 9.514 5.969 15.469 0 12.703-10.297 23-23 23-5.954 0-11.384-2.256-15.469-5.969 4.178 4.291 10.01 6.969 16.469 6.969 12.703 0 23-10.298 23-23 0-6.462-2.677-12.291-6.969-16.469z" style="opacity:.1"/>
 <path d="m25 11-6.5 6.5 6.5 6.5 6.5-6.5-6.5-6.5zm-7.5 7.5-6.5 6.5 6.5 6.5 6.5-6.5-6.5-6.5zm15 0-6.5 6.5 6.5 6.5 6.5-6.5-6.5-6.5zm-7.5 7.5-6.5 6.5 6.5 6.5 6.5-6.5-6.5-6.5z" style="opacity:.1"/>
 <rect transform="matrix(.70711 .70711 -.70711 .70711 0 0)" x="24.04" y=".707" width="9.192" height="9.192" style="fill:#d76abf"/>
 <rect transform="matrix(.70711 .70711 -.70711 .70711 0 0)" x="34.648" y="-9.899" width="9.192" height="9.192" style="fill:#f3f33f"/>
 <rect transform="matrix(.70711 .70711 -.70711 .70711 0 0)" x="34.648" y=".707" width="9.192" height="9.192" style="fill:#333"/>
 <rect transform="matrix(.70711 .70711 -.70711 .70711 0 0)" x="24.04" y="-9.899" width="9.192" height="9.192" style="fill:#12bbda"/>
</svg>

<svg xmlns="http://www.w3.org/2000/svg" viewBox="0 0 48 48">
 <defs>
  <linearGradient id="linearGradient3764" x1="1" x2="47" gradientUnits="userSpaceOnUse" gradientTransform="matrix(0,-1,1,0,-1.5e-6,47.999998)">
   <stop style="stop-color:#e4e4e4;stop-opacity:1"/>
   <stop offset="1" style="stop-color:#eee;stop-opacity:1"/>
  </linearGradient>
 </defs>
 <g>
  <path d="m 36.31 5 c 5.859 4.062 9.688 10.831 9.688 18.5 c 0 12.426 -10.07 22.5 -22.5 22.5 c -7.669 0 -14.438 -3.828 -18.5 -9.688 c 1.037 1.822 2.306 3.499 3.781 4.969 c 4.085 3.712 9.514 5.969 15.469 5.969 c 12.703 0 23 -10.298 23 -23 c 0 -5.954 -2.256 -11.384 -5.969 -15.469 c -1.469 -1.475 -3.147 -2.744 -4.969 -3.781 z m 4.969 3.781 c 3.854 4.113 6.219 9.637 6.219 15.719 c 0 12.703 -10.297 23 -23 23 c -6.081 0 -11.606 -2.364 -15.719 -6.219 c 4.16 4.144 9.883 6.719 16.219 6.719 c 12.703 0 23 -10.298 23 -23 c 0 -6.335 -2.575 -12.06 -6.719 -16.219 z" style="opacity:0.05"/>
  <path d="m 41.28 8.781 c 3.712 4.085 5.969 9.514 5.969 15.469 c 0 12.703 -10.297 23 -23 23 c -5.954 0 -11.384 -2.256 -15.469 -5.969 c 4.113 3.854 9.637 6.219 15.719 6.219 c 12.703 0 23 -10.298 23 -23 c 0 -6.081 -2.364 -11.606 -6.219 -15.719 z" style="opacity:0.1"/>
  <path d="m 31.25 2.375 c 8.615 3.154 14.75 11.417 14.75 21.13 c 0 12.426 -10.07 22.5 -22.5 22.5 c -9.708 0 -17.971 -6.135 -21.12 -14.75 a 23 23 0 0 0 44.875 -7 a 23 23 0 0 0 -16 -21.875 z" style="opacity:0.2"/>
 </g>
 <g>
  <path d="m 24 1 c 12.703 0 23 10.297 23 23 c 0 12.703 -10.297 23 -23 23 -12.703 0 -23 -10.297 -23 -23 0 -12.703 10.297 -23 23 -23 z" style="fill:url(#linearGradient3764);fill-opacity:1"/>
 </g>
 <g>
  <path d="m 40.03 7.531 c 3.712 4.084 5.969 9.514 5.969 15.469 0 12.703 -10.297 23 -23 23 c -5.954 0 -11.384 -2.256 -15.469 -5.969 4.178 4.291 10.01 6.969 16.469 6.969 c 12.703 0 23 -10.298 23 -23 0 -6.462 -2.677 -12.291 -6.969 -16.469 z" style="opacity:0.1"/>
 </g>
 <path d="M 25,11 18.5,17.5 25,24 31.5,17.5 25,11 Z M 17.5,18.5 11,25 17.5,31.5 24,25 17.5,18.5 Z m 15,0 L 26,25 32.5,31.5 39,25 32.5,18.5 Z M 25,26 18.5,32.5 25,39 31.5,32.5 25,26 Z" style="fill:#000;opacity:0.1;fill-opacity:1;stroke:none"/>
 <rect transform="matrix(0.70710678,0.70710678,-0.70710678,0.70710678,0,0)" y="0.707" x="24.04" height="9.192" width="9.192" style="fill:#d76abf;opacity:1;fill-opacity:1;stroke:none"/>
 <rect width="9.192" height="9.192" x="34.648" y="-9.899" transform="matrix(0.70710678,0.70710678,-0.70710678,0.70710678,0,0)" style="fill:#f3f33f;opacity:1;fill-opacity:1;stroke:none"/>
 <rect transform="matrix(0.70710678,0.70710678,-0.70710678,0.70710678,0,0)" y="0.707" x="34.648" height="9.192" width="9.192" style="fill:#333;opacity:1;fill-opacity:1;stroke:none"/>
 <rect width="9.192" height="9.192" x="24.04" y="-9.899" transform="matrix(0.70710678,0.70710678,-0.70710678,0.70710678,0,0)" style="fill:#12bbda;opacity:1;fill-opacity:1;stroke:none"/>
</svg>
